X:601
T:The boys of the town
R:Jig
O:Ireland
P:APB Brendan Mulvihill
B:Roche 1 n118- almost identical
D:Mulvihill/Long The Morning Dew
S:Mulvihill/Long The Morning Dew
Z:Transcription, chords:Mike Long
M:6/8
L:1/8
K:G
"G"ged B2A|BGE GAc|"G"BdB "C"ABA|"G"GBd "D"eaf|\
"G"ged B2A|"G"BGE "(C)"GAc|
[1 "G"~B3 "D"AGA|"G"BGF GBd:|[2 "G"~B3 "D"cBA|"G"BGF GBc\
|:"G"def g2f|"Am"eaa eaa|"Em/C"bag e2d|
"C/Em"efg efg|"G"GBd gfg|"D"afd efg|"C"edB "D"AGA|[1 "G"BGF GBc:|[2 "G"BGF G3|]
